html/app/assets/img/ui/users.svg

<svg fill="none" height="20" viewBox="0 0 22 20" width="22" xmlns="http://www.w3.org/2000/svg"><path d="m16.9461 13.8369c1.4559.7314 2.7042 1.9051 3.6153 3.3727.1804.2907.2706.436.3018.6372.0634.409-.2163.9117-.5971 1.0736-.1875.0796-.3983.0796-.82.0796m-4.5-9.46776c1.4817-.73635 2.5-2.26538 2.5-4.03224s-1.0183-3.29589-2.5-4.03224m-2 4.03224c0 2.48528-2.0147 4.5-4.49997 4.5-2.48529 0-4.5-2.01472-4.5-4.5s2.01471-4.5 4.5-4.5c2.48527 0 4.49997 2.01472 4.49997 4.5zm-11.44074 11.4383c1.5943-2.3937 4.11014-3.9383 6.94077-3.9383 2.83067 0 5.34647 1.5446 6.94077 3.9383.3493.5245.5239.7867.5038 1.1216-.0157.2608-.1866.5801-.395.7377-.2677.2024-.6357.2024-1.3719.2024h-11.35532c-.73618 0-1.10428 0-1.37192-.2024-.20839-.1576-.37935-.4769-.395-.7377-.020106-.3349.15453-.5971.5038-1.1216z" stroke="#222" stroke-linecap="round" stroke-linejoin="round" stroke-width="2"/></svg>

<svg width="22" height="20" viewBox="0 0 22 20" fill="none" xmlns="http://www.w3.org/2000/svg">
<path d="M16.9461 13.8369C18.402 14.5683 19.6503 15.742 20.5614 17.2096C20.7418 17.5003 20.832 17.6456 20.8632 17.8468C20.9266 18.2558 20.6469 18.7585 20.2661 18.9204C20.0786 19 19.8678 19 19.4461 19M14.9461 9.53224C16.4278 8.79589 17.4461 7.26686 17.4461 5.5C17.4461 3.73314 16.4278 2.20411 14.9461 1.46776M12.9461 5.5C12.9461 7.98528 10.9314 10 8.44613 10C5.96084 10 3.94613 7.98528 3.94613 5.5C3.94613 3.01472 5.96084 1 8.44613 1C10.9314 1 12.9461 3.01472 12.9461 5.5ZM1.50536 16.9383C3.09966 14.5446 5.6155 13 8.44613 13C11.2768 13 13.7926 14.5446 15.3869 16.9383C15.7362 17.4628 15.9108 17.725 15.8907 18.0599C15.875 18.3207 15.7041 18.64 15.4957 18.7976C15.228 19 14.86 19 14.1238 19H2.76848C2.0323 19 1.6642 19 1.39656 18.7976C1.18817 18.64 1.01721 18.3207 1.00156 18.0599C0.981454 17.725 1.15609 17.4628 1.50536 16.9383Z" stroke="#222222" stroke-width="2" stroke-linecap="round" stroke-linejoin="round"/>
</svg>
